X:1
T:The Name of Jesus
T:The Name of Jesus
T:Edmund Simon Lorenz
T:William Clark Martin, 1902
T:Public Domain Courtesy of the Cyber Hymnal™
C:Edmund Simon Lorenz
Z:Public Domain
Z:Courtesy of the Cyber Hymnal™
%%score ( 1 2 ) 3
L:1/8
Q:1/4=105
M:3/4
K:C
V:1 treble 
V:2 treble 
V:3 bass 
V:1
 [EG]2 | [Ec][EB] [EA]3 E | [EG][_E_G] [DF]2 [FB]2 | [Fd][Ec] [FB]3 F | [FA][EG] [EG]2 [Ec]2 | %5
w: 1.~The|name of Je- sus|is so sweet, I|love its mu- sic|to re- peat; It|
w: 2.~I|love the name of|Him whose heart Knows|all my griefs and|bears a part; Who|
w: 3.~That|name I fond- ly|love to hear, It|nev- er fails my|heart to cheer; Its|
w: 4.~No|word of man can|ev- er tell How|sweet the name I|love so well; O|
 [Ge][Fd] [Ec]3 [DB] | [DB][CA] !fermata![FA]A B[Fc] | d4 [=Fe]2 | [Fd]2 [FG]4 || %9
w: makes my joys full|and com- plete, The pre- cious|name of|Je- sus!|
w: bids all anx- ious|fears de- part, I love the|name of|Je- sus!|
w: mu- sic dries the|fall- ing tear, Ex- alt the|name of|Je- sus!|
w: let its prais- es|ev- er swell, O praise the|name of|Je- sus!|
"^Refrain" [Ec]2 [EG]2 [FA][EG] | [EG][DF] [DF]4 | [Fd]2 [FB]2 [Fc][FB] | [FA][EG] [EG]4 | %13
w: ||||
w: ||||
w: ||||
w: ||||
 [Ge]2 [Ec]2 [Fd][Ec] | [DB][CA] (!fermata![FA]A B)c | e4 [Ec]2 | !fermata![Fd]2 [Ec]2 |] %17
w: ||||
w: ||||
w: ||||
w: ||||
V:2
 x2 | x6 | x6 | x5 F | x6 | x6 | x6 | (^FG A2) x2 | x6 || x6 | x6 | x6 | x6 | x6 | x5 A | %15
 (Gc G2) x2 | x4 |] %17
V:3
 [C,G,]2 | [C,G,][C,^G,] [C,A,]3 [C,A,] | [G,,B,][G,,B,] [G,,B,]2 [G,D]2 | %3
w: ~|~ ~ ~ ~|~ ~ ~ ~|
 [G,B,][G,C] [G,D]3 [A,C] | [C,C][C,C] [C,C]2 [C,G,]2 | [C,C][C,G,] [C,G,]3 [E,^G,] | %6
w: ~ ~ ~ ~|~ ~ ~ ~|~ ~ ~ ~|
 [F,^G,][F,A,] !fermata![F,C] z2 [F,A,] | [D,A,][D,B,] [D,C]2 [D,C]2 | [G,B,]2 [G,B,]4 || %9
w: ~ ~ ~ ~|~ ~ ~ ~|~ ~|
 [C,G,]2 [C,C]2 [C,C][C,C] | [G,B,][G,B,] [G,B,]4 | [G,B,]2 [G,D]2 [G,D][G,D] | [C,C][C,C] [C,C]4 | %13
w: “Je- sus,” O how|sweet the name!|“Jes- us,” ev- ery|day the same;|
 [C,C]2 [C,G,]2 [C,G,][C,G,] | [E,^G,][F,A,] !fermata![F,C] z2 [F,C] | [G,C][G,C] [G,C]2 [G,C]2 | %16
w: “Je- sus,” let all|saints pro- claim Its|wor- thy praise for-|
 !fermata![G,B,]2 [C,G,]2 |] %17
w: ev- er!|

